X:1
T:Miss Menzies of Culdares
M:C
L:1/8
Q:80
C:Trad. arr. M. Grey
S:Reel
K:HP
[| e | \
{ag}a2{g}ae{g}fe{g}ce | \
ae{g}fafB{G}Be | \
ae{g}fa{fg}f2{g}ec |
af{g}ec{gef}e2{AGAG}Ae{ag}a2{g}ae{g}fe{g}ce | \
ae{g}fafB{G}Be | \
ae{g}fe{g}fa{fg}fe |
af{g}ec{gef}e2{AGAG}A|] [ | \
e | \
{gAGAG}A2{g}eAaA{g}ec | \
{g}c{d}A{g}ce{g}fB{G}Ba |
{AGAG}A2{g}eAaA{g}ec | \
af{g}ec{gef}e2{AGAG}Ae{gAGAG}A2{g}eAaA{g}ec | \
{g}c{d}A{g}ce{g}fB{G}Be |
ae{g}fe{g}fa{fg}fe | \
af{g}ec{gef}e2{AGAG}A2|]
